X:86
Q: "Poco rubato"
T: A füzesi falu végen
L: 1/8
K: F
ggdd | ff g2 | d2 z2 |
fggd | ff c2 | B2 z2 |
Bcff | cd B2 | F2 z2 |
Bdff | cd B2 | G2 z2 |

